X: 7336
T: Cliffs Of Dooneen, The
R: waltz
M: 3/4
K: Amixolydian
Bd|e4 fa|f4 ed|B2 A2 GB|A4 fg|
a4 ba|f2 A3 d|e4 de|f4 fg|
a4 ba|f2 A3 d|e4 de|f4 fe|
d3 efa|f4 ed|B2 A2 GB|A4|

